Numix-GalliumOS/16/status/user-offline-panel.svg

<?xml version="1.0" encoding="UTF-8" standalone="no"?>
<svg
   xmlns:dc="http://purl.org/dc/elements/1.1/"
   xmlns:cc="http://creativecommons.org/ns#"
   xmlns:rdf="http://www.w3.org/1999/02/22-rdf-syntax-ns#"
   xmlns:svg="http://www.w3.org/2000/svg"
   xmlns="http://www.w3.org/2000/svg"
   xmlns:sodipodi="http://sodipodi.sourceforge.net/DTD/sodipodi-0.dtd"
   xmlns:inkscape="http://www.inkscape.org/namespaces/inkscape"
   width="14.545"
   viewBox="0 0 14.545 16"
   height="16"
   id="svg3051"
   version="1.1"
   inkscape:version="0.91 r"
   sodipodi:docname="user-offline-panel.svg">
  <metadata
     id="metadata3063">
    <rdf:RDF>
      <cc:Work
         rdf:about="">
        <dc:format>image/svg+xml</dc:format>
        <dc:type
           rdf:resource="http://purl.org/dc/dcmitype/StillImage" />
        <dc:title />
      </cc:Work>
    </rdf:RDF>
  </metadata>
  <defs
     id="defs3061" />
  <sodipodi:namedview
     pagecolor="#ffffff"
     bordercolor="#666666"
     borderopacity="1"
     objecttolerance="10"
     gridtolerance="10"
     guidetolerance="10"
     inkscape:pageopacity="0"
     inkscape:pageshadow="2"
     inkscape:window-width="1366"
     inkscape:window-height="747"
     id="namedview3059"
     showgrid="false"
     inkscape:zoom="10.727273"
     inkscape:cx="-10.088983"
     inkscape:cy="11"
     inkscape:window-x="0"
     inkscape:window-y="21"
     inkscape:window-maximized="1"
     inkscape:current-layer="svg3051" />
  <path
     inkscape:connector-curvature="0"
     id="path3057"
     d="m 6.9086445,2.908712 c -3.010964,0 -5.4546443,2.4436808 -5.4546443,5.4546437 0,3.0109643 2.4436803,5.4546443 5.4546443,5.4546443 1.428971,0 2.7317576,-0.554352 3.7046485,-1.454572 l 3.931707,0 -2.432044,-2.432043 c 0.151276,-0.499646 0.250187,-1.0189277 0.250187,-1.5680293 0,-3.0109629 -2.4436806,-5.4546437 -5.4546445,-5.4546437 z M 5.3177061,5.8178555 6.9086445,7.4542484 8.5450374,5.8405465 9.4541447,6.7724183 7.8177518,8.3633557 9.4315988,9.99975 8.4999454,10.908857 6.9086445,9.2724631 5.2722506,10.886311 4.3631432,9.954658 5.9995371,8.3633557 4.3858352,6.7269628 5.3177061,5.8178555 Z"
     style="fill:#ececec;fill-opacity:1;fill-rule:evenodd" />
</svg>

<svg xmlns="http://www.w3.org/2000/svg" viewBox="0 0 14.545 16">
 <path d="m 6.909 2.909 c -3.01 0 -5.455 2.444 -5.455 5.455 0 3.01 2.444 5.455 5.455 5.455 1.429 0 2.732 -0.554 3.705 -1.455 l 3.932 0 -2.432 -2.432 c 0.151 -0.5 0.25 -1.019 0.25 -1.568 0 -3.01 -2.444 -5.455 -5.455 -5.455 z m -1.591 2.909 1.591 1.636 1.636 -1.614 0.909 0.932 -1.636 1.591 1.614 1.636 -0.932 0.909 -1.591 -1.636 -1.636 1.614 -0.909 -0.932 1.636 -1.591 -1.614 -1.636 0.932 -0.909" style="fill:#ececec;fill-opacity:1;fill-rule:evenodd"/>
</svg>
